icons/organization-24.svg

<svg width="24" height="24" viewBox="0 0 24 24" fill="none" xmlns="http://www.w3.org/2000/svg">
<path d="M7.25 12C6.83579 12 6.5 12.3358 6.5 12.75C6.5 13.1642 6.83579 13.5 7.25 13.5H7.75C8.16421 13.5 8.5 13.1642 8.5 12.75C8.5 12.3358 8.16421 12 7.75 12H7.25Z" fill="#24292E"/>
<path d="M6.5 9.25C6.5 8.83579 6.83579 8.5 7.25 8.5H7.75C8.16421 8.5 8.5 8.83579 8.5 9.25C8.5 9.66421 8.16421 10 7.75 10H7.25C6.83579 10 6.5 9.66421 6.5 9.25Z" fill="#24292E"/>
<path d="M7.25 5C6.83579 5 6.5 5.33579 6.5 5.75C6.5 6.16421 6.83579 6.5 7.25 6.5H7.75C8.16421 6.5 8.5 6.16421 8.5 5.75C8.5 5.33579 8.16421 5 7.75 5H7.25Z" fill="#24292E"/>
<path d="M10 12.75C10 12.3358 10.3358 12 10.75 12H11.25C11.6642 12 12 12.3358 12 12.75C12 13.1642 11.6642 13.5 11.25 13.5H10.75C10.3358 13.5 10 13.1642 10 12.75Z" fill="#24292E"/>
<path d="M10.75 8.5C10.3358 8.5 10 8.83579 10 9.25C10 9.66421 10.3358 10 10.75 10H11.25C11.6642 10 12 9.66421 12 9.25C12 8.83579 11.6642 8.5 11.25 8.5H10.75Z" fill="#24292E"/>
<path d="M10 5.75C10 5.33579 10.3358 5 10.75 5H11.25C11.6642 5 12 5.33579 12 5.75C12 6.16421 11.6642 6.5 11.25 6.5H10.75C10.3358 6.5 10 6.16421 10 5.75Z" fill="#24292E"/>
<path d="M14.25 12C13.8358 12 13.5 12.3358 13.5 12.75C13.5 13.1642 13.8358 13.5 14.25 13.5H14.75C15.1642 13.5 15.5 13.1642 15.5 12.75C15.5 12.3358 15.1642 12 14.75 12H14.25Z" fill="#24292E"/>
<path d="M13.5 9.25C13.5 8.83579 13.8358 8.5 14.25 8.5H14.75C15.1642 8.5 15.5 8.83579 15.5 9.25C15.5 9.66421 15.1642 10 14.75 10H14.25C13.8358 10 13.5 9.66421 13.5 9.25Z" fill="#24292E"/>
<path d="M14.25 5C13.8358 5 13.5 5.33579 13.5 5.75C13.5 6.16421 13.8358 6.5 14.25 6.5H14.75C15.1642 6.5 15.5 6.16421 15.5 5.75C15.5 5.33579 15.1642 5 14.75 5H14.25Z" fill="#24292E"/>
<path fill-rule="evenodd" clip-rule="evenodd" d="M3 20C3 21.1046 3.89543 22 5 22H8.75C9.16421 22 9.5 21.6642 9.5 21.25V19H12.5V21.25C12.5 21.6642 12.8358 22 13.25 22H17C17.0923 22 17.1831 21.9938 17.272 21.9817C17.3253 21.9936 17.3806 22 17.4375 22H21.5003C22.6051 22 23.5 21.1043 23.5 20V12.375C23.5 11.7455 23.2036 11.1527 22.7 10.775L21.7 10.025C21.3686 9.77645 20.8985 9.84361 20.65 10.175C20.4015 10.5064 20.4686 10.9765 20.8 11.225L21.8 11.975C21.9259 12.0694 22 12.2176 22 12.375V20C22 20.2763 21.7762 20.5 21.5003 20.5H18.937C18.9781 20.3402 19 20.1726 19 20V3C19 1.89543 18.1046 1 17 1H5C3.89543 1 3 1.89543 3 3V20ZM5 20.5C4.72386 20.5 4.5 20.2761 4.5 20V3C4.5 2.72386 4.72386 2.5 5 2.5H17C17.2761 2.5 17.5 2.72386 17.5 3V20C17.5 20.2761 17.2761 20.5 17 20.5H14V18.25C14 17.8358 13.6642 17.5 13.25 17.5H8.75C8.33579 17.5 8 17.8358 8 18.25V20.5H5Z" fill="#24292E"/>
</svg>

<svg xmlns="http://www.w3.org/2000/svg" width="24" height="24" viewBox="0 0 24 24"><path d="M7.25 12a.75.75 0 000 1.5h.5a.75.75 0 000-1.5h-.5zM6.5 9.25a.75.75 0 01.75-.75h.5a.75.75 0 010 1.5h-.5a.75.75 0 01-.75-.75zM7.25 5a.75.75 0 000 1.5h.5a.75.75 0 000-1.5h-.5zM10 12.75a.75.75 0 01.75-.75h.5a.75.75 0 010 1.5h-.5a.75.75 0 01-.75-.75zm.75-4.25a.75.75 0 000 1.5h.5a.75.75 0 000-1.5h-.5zM10 5.75a.75.75 0 01.75-.75h.5a.75.75 0 010 1.5h-.5a.75.75 0 01-.75-.75zM14.25 12a.75.75 0 000 1.5h.5a.75.75 0 000-1.5h-.5zm-.75-2.75a.75.75 0 01.75-.75h.5a.75.75 0 010 1.5h-.5a.75.75 0 01-.75-.75zM14.25 5a.75.75 0 000 1.5h.5a.75.75 0 000-1.5h-.5z"/><path fill-rule="evenodd" d="M3 20a2 2 0 002 2h3.75a.75.75 0 00.75-.75V19h3v2.25c0 .414.336.75.75.75H17c.092 0 .183-.006.272-.018a.758.758 0 00.166.018H21.5a2 2 0 002-2v-7.625a2 2 0 00-.8-1.6l-1-.75a.75.75 0 10-.9 1.2l1 .75a.5.5 0 01.2.4V20a.5.5 0 01-.5.5h-2.563c.041-.16.063-.327.063-.5V3a2 2 0 00-2-2H5a2 2 0 00-2 2v17zm2 .5a.5.5 0 01-.5-.5V3a.5.5 0 01.5-.5h12a.5.5 0 01.5.5v17a.5.5 0 01-.5.5h-3v-2.25a.75.75 0 00-.75-.75h-4.5a.75.75 0 00-.75.75v2.25H5z"/></svg>
